X: 7680
T: Coleraine, The
R: jig
M: 6/8
K: Aminor
|:"Am"EAA ABc|"G"Bee e2d|"C"cBA ABc|"E"BGE E2 D|
"Am"EAA ABc|"G"Bee e2d|"Am"cBA "E"^GAB|"Am"A2A A3:|
"C"c3 cBA|"G"Bgg g2^g|"Am"age dcB|"E"^GAB E3|
"Am"A^GA "Bm"BAB|"C"cBc "Dm"e2d|"Am"cBA "E"^GAB|"Am"A2A A3:|

